assets/fc/fc-alphabetical-sorting-za.svg

<svg xmlns="http://www.w3.org/2000/svg" width="100%" height="100%" viewBox="0 0 48 48"><g fill="#2196F3"><path d="M16.8 40h-5.3l-1.1 3H6.9l5.7-15.2h2.9L21.1 43h-3.2l-1.1-3zm-4.6-2.7H16l-1.9-5.7-1.9 5.7zM12.4 17.7H20v2.5H8.4v-1.9L16 7.5H8.4V5h11.4v1.7l-7.4 11z"/></g><path fill="#546E7A" d="M38 33V5h-4v28h-6l8 10 8-10z"/></svg>

<svg xmlns="http://www.w3.org/2000/svg" width="100%" height="100%" viewBox="0 0 48 48"><g fill="#2196F3"><path d="M16.8 40h-5.3l-1.1 3H6.9l5.7-15.2h2.9L21.1 43h-3.2L16.8 40zM12.2 37.3H16l-1.9-5.7L12.2 37.3zM12.4 17.7H20v2.5H8.4v-1.9L16 7.5H8.4V5h11.4v1.7L12.4 17.7z"/></g><path fill="#546E7A" d="M38 33L38 5 34 5 34 33 28 33 36 43 44 33z"/></svg>
